Simply-Orange-Circles/scalable/actions/document-properties.svg

<svg xmlns="http://www.w3.org/2000/svg" version="1" viewBox="0 0 24 24"><path fill="#ff7f2a" d="M12 1c-.35 0-.7.02-1.03.05l-.64 3.29a7.88 7.88 0 0 0-1.52.49l-2.4-2.3c-.62.36-1.15.8-1.68 1.27l1.42 3a7.95 7.95 0 0 0-.93 1.27l-3.29-.44a10.86 10.86 0 0 0-.64 2.01l2.9 1.58a7.58 7.58 0 0 0-.05.78c0 .27.02.52.05.79l-2.9 1.57c.16.7.36 1.37.64 2.01l3.3-.44c.26.46.58.88.92 1.28l-1.42 3c.53.46 1.06.9 1.67 1.27l2.4-2.31a7.8 7.8 0 0 0 1.53.5l.64 3.28a11.19 11.19 0 0 0 2.06 0l.64-3.29a7.79 7.79 0 0 0 1.52-.49l2.4 2.31c.62-.36 1.15-.81 1.68-1.28l-1.43-3c.35-.39.67-.81.94-1.27l3.29.44a10.86 10.86 0 0 0 .64-2.01l-2.9-1.57a7.82 7.82 0 0 0 0-1.57l2.9-1.58a10.86 10.86 0 0 0-.64-2.01l-3.3.44a7.95 7.95 0 0 0-.93-1.28l1.43-2.99c-.53-.47-1.06-.91-1.67-1.28l-2.41 2.31a7.88 7.88 0 0 0-1.52-.49l-.64-3.29A11.19 11.19 0 0 0 12 1zm0 6.29a4.71 4.71 0 1 1 0 9.43 4.71 4.71 0 0 1 0-9.43z" overflow="visible"/></svg>

<?xml version="1.0" encoding="UTF-8" standalone="no"?>
<svg
   xmlns:dc="http://purl.org/dc/elements/1.1/"
   xmlns:cc="http://creativecommons.org/ns#"
   xmlns:rdf="http://www.w3.org/1999/02/22-rdf-syntax-ns#"
   xmlns:svg="http://www.w3.org/2000/svg"
   xmlns="http://www.w3.org/2000/svg"
   xmlns:sodipodi="http://sodipodi.sourceforge.net/DTD/sodipodi-0.dtd"
   xmlns:inkscape="http://www.inkscape.org/namespaces/inkscape"
   version="1"
   viewBox="0 0 24 24"
   id="svg4"
   sodipodi:docname="document-properties.svg"
   inkscape:version="0.92.4 (5da689c313, 2019-01-14)">
  <metadata
     id="metadata10">
    <rdf:RDF>
      <cc:Work
         rdf:about="">
        <dc:format>image/svg+xml</dc:format>
        <dc:type
           rdf:resource="http://purl.org/dc/dcmitype/StillImage" />
        <dc:title></dc:title>
      </cc:Work>
    </rdf:RDF>
  </metadata>
  <defs
     id="defs8" />
  <sodipodi:namedview
     pagecolor="#ffffff"
     bordercolor="#666666"
     borderopacity="1"
     objecttolerance="10"
     gridtolerance="10"
     guidetolerance="10"
     inkscape:pageopacity="0"
     inkscape:pageshadow="2"
     inkscape:window-width="1078"
     inkscape:window-height="480"
     id="namedview6"
     showgrid="false"
     inkscape:zoom="9.8333333"
     inkscape:cx="-0.81355932"
     inkscape:cy="12"
     inkscape:window-x="0"
     inkscape:window-y="28"
     inkscape:window-maximized="0"
     inkscape:current-layer="svg4" />
  <path
     d="M 12,1 C 11.65,1 11.3,1.02 10.97,1.05 L 10.33,4.34 A 7.88,7.88 0 0 0 8.81,4.83 L 6.41,2.53 C 5.79,2.89 5.26,3.33 4.73,3.8 l 1.42,3 A 7.95,7.95 0 0 0 5.22,8.07 L 1.93,7.63 A 10.86,10.86 0 0 0 1.29,9.64 l 2.9,1.58 A 7.58,7.58 0 0 0 4.14,12 c 0,0.27 0.02,0.52 0.05,0.79 l -2.9,1.57 c 0.16,0.7 0.36,1.37 0.64,2.01 l 3.3,-0.44 c 0.26,0.46 0.58,0.88 0.92,1.28 l -1.42,3 c 0.53,0.46 1.06,0.9 1.67,1.27 l 2.4,-2.31 a 7.8,7.8 0 0 0 1.53,0.5 l 0.64,3.28 a 11.19,11.19 0 0 0 2.06,0 l 0.64,-3.29 a 7.79,7.79 0 0 0 1.52,-0.49 l 2.4,2.31 c 0.62,-0.36 1.15,-0.81 1.68,-1.28 l -1.43,-3 c 0.35,-0.39 0.67,-0.81 0.94,-1.27 l 3.29,0.44 a 10.86,10.86 0 0 0 0.64,-2.01 l -2.9,-1.57 a 7.82,7.82 0 0 0 0,-1.57 l 2.9,-1.58 A 10.86,10.86 0 0 0 22.07,7.63 l -3.3,0.44 A 7.95,7.95 0 0 0 17.84,6.79 L 19.27,3.8 C 18.74,3.33 18.21,2.89 17.6,2.52 L 15.19,4.83 A 7.88,7.88 0 0 0 13.67,4.34 L 13.03,1.05 A 11.19,11.19 0 0 0 12,1 Z m 0,6.29 a 4.715,4.715 0 1 1 0,9.43 4.715,4.715 0 0 1 0,-9.43 z"
     overflow="visible"
     id="path2"
     inkscape:connector-curvature="0"
     style="overflow:visible;fill:#ff7f2a" />
</svg>
